assets/img/braze_icons/align-horizontal-centre-01.svg

<svg fill="none" height="24" viewBox="0 0 24 24" width="24" xmlns="http://www.w3.org/2000/svg"><g fill="#801ed7"><path d="m12 2c.5523 0 1 .44772 1 1v18c0 .5523-.4477 1-1 1s-1-.4477-1-1v-18c0-.55228.4477-1 1-1z"/><path d="m17.9142 11 2.2929-2.29289c.3905-.39053.3905-1.02369 0-1.41422-.3905-.39052-1.0237-.39052-1.4142 0l-4 4.00001c-.3905.3905-.3905 1.0237 0 1.4142l4 4c.3905.3905 1.0237.3905 1.4142 0s.3905-1.0237 0-1.4142l-2.2929-2.2929h4.0858c.5523 0 1-.4477 1-1s-.4477-1-1-1z"/><path d="m1 12c0-.5523.44772-1 1-1h4.08579l-2.2929-2.29289c-.39052-.39053-.39052-1.02369 0-1.41422.39053-.39052 1.02369-.39052 1.41422 0l4 4.00001c.39052.3905.39052 1.0237 0 1.4142l-4 4c-.39053.3905-1.02369.3905-1.41422 0-.39052-.3905-.39052-1.0237 0-1.4142l2.2929-2.2929h-4.08579c-.55228 0-1-.4477-1-1z"/></g></svg>

<svg width="24" height="24" viewBox="0 0 24 24" fill="none" xmlns="http://www.w3.org/2000/svg">
<path d="M12 2C12.5523 2 13 2.44772 13 3L13 21C13 21.5523 12.5523 22 12 22C11.4477 22 11 21.5523 11 21L11 3C11 2.44772 11.4477 2 12 2Z" fill="#801ED7"/>
<path d="M17.9142 11L20.2071 8.70711C20.5976 8.31658 20.5976 7.68342 20.2071 7.29289C19.8166 6.90237 19.1834 6.90237 18.7929 7.29289L14.7929 11.2929C14.4024 11.6834 14.4024 12.3166 14.7929 12.7071L18.7929 16.7071C19.1834 17.0976 19.8166 17.0976 20.2071 16.7071C20.5976 16.3166 20.5976 15.6834 20.2071 15.2929L17.9142 13L22 13C22.5523 13 23 12.5523 23 12C23 11.4477 22.5523 11 22 11L17.9142 11Z" fill="#801ED7"/>
<path d="M1 12C1 11.4477 1.44772 11 2 11H6.08579L3.79289 8.70711C3.40237 8.31658 3.40237 7.68342 3.79289 7.29289C4.18342 6.90237 4.81658 6.90237 5.20711 7.29289L9.20711 11.2929C9.59763 11.6834 9.59763 12.3166 9.20711 12.7071L5.20711 16.7071C4.81658 17.0976 4.18342 17.0976 3.79289 16.7071C3.40237 16.3166 3.40237 15.6834 3.79289 15.2929L6.08579 13H2C1.44772 13 1 12.5523 1 12Z" fill="#801ED7"/>
</svg>
